wp-content/themes/hello-elementor/assets/images/go-pro.svg

<svg width="162" height="134" viewBox="0 0 162 134" fill="none" xmlns="http://www.w3.org/2000/svg">
<path d="M61.9814 75.2752C53.9598 77.8177 45.311 85.5832 40.02 82.9431C36.5988 81.236 33.4045 69.3434 28.7465 64.7936C25.9323 62.0448 24.594 61.3164 23.3571 60.6579C19.6018 58.6588 18.0112 59.0198 18.0112 57.2707C18.0112 55.0026 22.9444 54.4852 28.1585 59.508C28.5262 59.8623 23.3461 55.4871 22.0731 54.4852C20.6647 53.3768 19.3346 52.1459 20.0458 50.8324C21.2378 48.631 24.0568 50.4009 25.9323 52.6763C27.589 54.6863 29.405 57.091 28.7465 55.9526C27.3424 53.5255 30.7959 51.4145 32.1215 50.9955C33.4471 50.5766 35.8141 50.4359 36.5988 51.9112C37.0335 52.7285 36.7718 53.5185 35.8141 54.0857C34.583 54.8148 31.9903 55.1703 31.5146 57.2707C31.1849 58.7267 32.1215 60.3096 34.5255 58.5106C35.9901 57.4146 35.0434 55.5218 36.5988 54.2463C38.1542 52.9708 39.9599 53.535 39.9599 55.3462C39.9599 61.3642 35.2715 62.4628 35.4905 62.834C37.5638 66.3486 41.189 72.9864 42.2661 74.0795C47.4046 79.2945 55.796 64.6996 58.786 66.0519" fill="white"/>
<path d="M61.9814 75.2752C53.9598 77.8177 45.311 85.5832 40.02 82.9431C36.5988 81.236 33.4045 69.3434 28.7465 64.7936C25.9323 62.0448 24.594 61.3164 23.3571 60.6579C19.6018 58.6588 18.0112 59.0198 18.0112 57.2707C18.0112 55.0026 22.9444 54.4852 28.1585 59.508C28.5262 59.8623 23.3461 55.4871 22.0731 54.4852C20.6647 53.3768 19.3346 52.1459 20.0458 50.8324C21.2378 48.631 24.0568 50.4009 25.9323 52.6763C27.589 54.6863 29.405 57.091 28.7465 55.9526C27.3424 53.5255 30.7959 51.4145 32.1215 50.9955C33.4471 50.5766 35.8141 50.4359 36.5988 51.9112C37.0335 52.7285 36.7718 53.5185 35.8141 54.0857C34.583 54.8148 31.9903 55.1703 31.5146 57.2707C31.1849 58.7267 32.1215 60.3096 34.5255 58.5106C35.9901 57.4146 35.0434 55.5218 36.5988 54.2463C38.1542 52.9708 39.9599 53.535 39.9599 55.3462C39.9599 61.3642 35.2715 62.4628 35.4905 62.834C37.5638 66.3486 41.189 72.9864 42.2661 74.0795C47.4046 79.2945 55.796 64.6996 58.786 66.0519" stroke="#A4AFB7" stroke-width="1.39652" stroke-linecap="round" stroke-linejoin="round"/>
<path fill-rule="evenodd" clip-rule="evenodd" d="M37.3094 9.37914C39.6232 9.37914 41.499 11.2549 41.499 13.5687V37.9015C41.499 40.2153 39.6232 42.091 37.3094 42.091L35.4897 42.0901L35.4902 46.2523C35.4902 46.4103 35.4455 46.5642 35.3625 46.6968L35.2932 46.792C34.9951 47.146 34.4665 47.1913 34.1125 46.8932L28.4077 42.0901L12.8702 42.091C10.5564 42.091 8.68066 40.2153 8.68066 37.9015V13.5687C8.68066 11.2549 10.5564 9.37914 12.8702 9.37914H37.3094Z" fill="#C2CBD2" stroke="#A4AFB7" stroke-width="1.39652"/>
<path d="M3.79297 3.09479L6.58601 6.58609" stroke="#A4AFB7" stroke-width="1.25687" stroke-linecap="round"/>
<path d="M11.125 1V5.18957" stroke="#A4AFB7" stroke-width="1.25687" stroke-linecap="round"/>
<path d="M1 10.7757L4.49131 11.4739" stroke="#A4AFB7" stroke-width="1.25687" stroke-linecap="round"/>
<path d="M66.7717 25.0433C63.2291 24.9877 59.8361 26.4693 57.4688 29.1054L54.5788 32.3236C53.8539 33.1308 53.2127 34.0093 52.665 34.9457C50.7178 38.2748 49.6803 40.7829 49.6233 42.4831C48.9202 63.4474 48.764 78.6723 49.1563 88.1578C49.3343 92.4605 49.9196 96.2873 50.9167 99.6376C51.9301 103.043 54.002 105.912 56.7087 107.931C59.4154 109.949 62.7568 111.116 66.3094 111.116H126.354C130.789 111.116 134.804 109.319 137.71 106.413C140.616 103.506 142.414 99.4912 142.414 95.0564V45.1826C142.414 41.708 141.297 38.4304 139.353 35.7519C137.41 33.0734 134.641 30.994 131.338 29.9156L118.919 25.8611L66.7717 25.0433Z" fill="white" stroke="#A4AFB7" stroke-width="1.39652"/>
<path d="M108.061 24.2527H69.8326C57.8007 24.2527 48.0469 34.0065 48.0469 46.0384V84.419C48.0469 96.451 57.8007 106.205 69.8326 106.205H108.061C120.093 106.205 129.846 96.451 129.846 84.419V46.0384C129.846 34.0065 120.093 24.2527 108.061 24.2527Z" fill="white"/>
<path d="M112.39 24.9509H65.5034C56.2481 24.9509 48.7451 32.4538 48.7451 41.7092V88.7482C48.7451 98.0036 56.2481 105.507 65.5034 105.507H112.39C121.645 105.507 129.148 98.0036 129.148 88.7482V41.7092C129.148 32.4538 121.645 24.9509 112.39 24.9509Z" fill="white" stroke="#A4AFB7" stroke-width="1.39652"/>
<path d="M101.036 108.812L101.586 127.536H100.295C98.8613 127.536 97.6992 128.698 97.6992 130.132C97.6992 131.565 98.8613 132.727 100.295 132.727H104.363C106.292 132.727 107.856 131.163 107.856 129.234C107.856 128.64 106.422 119.628 106.729 108.812" fill="white"/>
<path d="M101.036 108.812L101.586 127.536H100.295C98.8613 127.536 97.6992 128.698 97.6992 130.132C97.6992 131.565 98.8613 132.727 100.295 132.727H104.363C106.292 132.727 107.856 131.163 107.856 129.234C107.856 128.64 106.422 119.628 106.729 108.812" stroke="#A4AFB7" stroke-width="1.39652" stroke-linecap="round" stroke-linejoin="round"/>
<path d="M77.5745 108.812L78.1244 127.536H76.8329C75.3994 127.536 74.2373 128.698 74.2373 130.132C74.2373 131.565 75.3994 132.727 76.8329 132.727H80.901C82.8302 132.727 84.3941 131.163 84.3941 129.234C84.3941 128.64 82.9604 119.628 83.2672 108.812" fill="white"/>
<path d="M77.5745 108.812L78.1244 127.536H76.8329C75.3994 127.536 74.2373 128.698 74.2373 130.132C74.2373 131.565 75.3994 132.727 76.8329 132.727H80.901C82.8302 132.727 84.3941 131.163 84.3941 129.234C84.3941 128.64 82.9604 119.628 83.2672 108.812" stroke="#A4AFB7" stroke-width="1.39652" stroke-linecap="round" stroke-linejoin="round"/>
<path d="M113.424 28.9305H64.5176C58.1623 28.9305 53.0103 34.0825 53.0103 40.4378V89.344C53.0103 95.6994 58.1623 100.851 64.5176 100.851H113.424C119.779 100.851 124.931 95.6994 124.931 89.344V40.4378C124.931 34.0825 119.779 28.9305 113.424 28.9305Z" fill="#E6E9EC" fill-opacity="0.7"/>
<path fill-rule="evenodd" clip-rule="evenodd" d="M49.9643 127.586C52.6651 127.585 54.804 129.812 54.804 132.28H33.3994C33.3994 127.653 36.7343 124.256 41.362 124.256C44.472 124.256 46.0868 125.338 47.9863 127.883C48.0267 127.937 46.407 129.128 46.4477 129.184C46.2584 129.608 47.8162 127.586 49.9643 127.586Z" fill="white" stroke="#A4AFB7" stroke-width="1.39652"/>
<path fill-rule="evenodd" clip-rule="evenodd" d="M147.378 132.153H140.016C139.286 130.874 138.864 130.134 138.748 129.933L132.725 119.842C132.696 119.792 132.668 119.74 132.641 119.688C131.745 117.938 131.988 115.793 133.739 114.897C133.879 114.825 134.024 114.763 134.173 114.713C135.718 114.189 137.384 114.902 138.095 116.32C138.14 116.408 138.197 116.546 138.268 116.734C139.742 121.584 140.433 123.727 140.342 123.165C140.251 122.603 139.775 119.078 138.914 112.591C138.706 110.18 140.492 108.058 142.903 107.85C143.088 107.834 143.275 107.83 143.461 107.838L143.713 107.848C146.178 107.951 148.094 110.034 147.991 112.5C147.988 112.583 147.982 112.667 147.974 112.75C146.673 121.647 146.034 126.495 146.058 127.294C146.082 128.093 146.756 125.655 148.081 119.98C148.597 118.604 150.131 117.906 151.507 118.422C151.631 118.469 151.751 118.524 151.866 118.588C153.359 119.418 153.455 120.821 152.63 122.316L147.378 132.153Z" fill="white" stroke="#A4AFB7" stroke-width="1.39652"/>
<path fill-rule="evenodd" clip-rule="evenodd" d="M135.764 126.694C138.776 126.694 141.231 129.077 141.346 132.061L141.349 132.279H130.178C130.179 129.268 132.562 126.814 135.545 126.698L135.764 126.694Z" fill="white" stroke="#A4AFB7" stroke-width="1.39652"/>
<path d="M28.3721 132.552H151.266" stroke="#A4AFB7" stroke-width="1.39652" stroke-linecap="round"/>
<path d="M155.176 132.552H160.762" stroke="#A4AFB7" stroke-width="1.39652" stroke-linecap="round"/>
<path d="M19.4341 132.552H25.0202" stroke="#A4AFB7" stroke-width="1.39652" stroke-linecap="round"/>
<path d="M14.9653 132.552H16.6412" stroke="#A4AFB7" stroke-width="1.39652" stroke-linecap="round"/>
<path d="M134.296 71.665C139.773 74.8636 150.955 79.7497 148.367 81.4395C141.666 85.8137 139.21 84.2424 139.21 89.5108C139.21 99.0805 145.468 100.33 148.367 97.8094C151.266 95.2892 148.683 87.9601 145.036 89.5108C141.389 91.0614 155.176 84.142 155.176 80.1906C155.176 76.2392 138.31 63.356 134.296 62.5362" fill="white"/>
<path d="M134.296 71.665C139.773 74.8636 150.955 79.7497 148.367 81.4395C141.666 85.8137 139.21 84.2424 139.21 89.5108C139.21 99.0805 145.468 100.33 148.367 97.8094C151.266 95.2892 148.683 87.9601 145.036 89.5108C141.389 91.0614 155.176 84.142 155.176 80.1906C155.176 76.2392 138.31 63.356 134.296 62.5362" stroke="#A4AFB7" stroke-width="1.39652" stroke-linecap="round" stroke-linejoin="round"/>
<path d="M63.5561 35.0752C61.2954 36.4534 59.6933 38.2061 58.7495 40.3331" stroke="white" stroke-width="3.35166" stroke-linecap="round"/>
<path d="M18.0874 25.943L23.3454 30.7495L33.5424 19.5762" stroke="white" stroke-width="3.35166" stroke-linecap="round" stroke-linejoin="round"/>
<path d="M57.1299 46.7773C57.8626 46.7773 58.4566 46.1833 58.4566 45.4506C58.4566 44.7179 57.8626 44.1239 57.1299 44.1239C56.3972 44.1239 55.8032 44.7179 55.8032 45.4506C55.8032 46.1833 56.3972 46.7773 57.1299 46.7773Z" fill="white"/>
<path fill-rule="evenodd" clip-rule="evenodd" d="M101.596 52.9373C105.175 52.9373 108.187 55.9898 108.187 60.2425C108.187 62.3141 107.591 63.9135 106.566 65.0092C104.908 64.0033 102.962 63.4248 100.881 63.4248C99.4256 63.4248 98.0359 63.708 96.7644 64.2223C95.8138 63.0483 95.2256 61.5119 95.2256 59.7144C95.2256 55.4618 98.0165 52.9373 101.596 52.9373Z" fill="white" stroke="#A4AFB7" stroke-width="1.39834"/>
<path d="M100.882 63.9242C102.537 63.9242 103.878 62.5827 103.878 60.9278C103.878 59.2729 102.537 57.9313 100.882 57.9313C99.2268 57.9313 97.8853 59.2729 97.8853 60.9278C97.8853 62.5827 99.2268 63.9242 100.882 63.9242Z" fill="#A4AFB7"/>
<path fill-rule="evenodd" clip-rule="evenodd" d="M71.5626 52.9373C67.9834 52.9373 64.9714 55.9898 64.9714 60.2425C64.9714 62.3141 65.5671 63.9135 66.5919 65.0092C68.2501 64.0033 70.1959 63.4248 72.2767 63.4248C73.7326 63.4248 75.1223 63.708 76.3939 64.2223C77.3444 63.0483 77.9326 61.5119 77.9326 59.7144C77.9326 55.4618 75.1417 52.9373 71.5626 52.9373Z" fill="white" stroke="#A4AFB7" stroke-width="1.39834"/>
<path d="M72.277 63.9242C70.6221 63.9242 69.2805 62.5827 69.2805 60.9278C69.2805 59.2729 70.6221 57.9313 72.277 57.9313C73.9319 57.9313 75.2734 59.2729 75.2734 60.9278C75.2734 62.5827 73.9319 63.9242 72.277 63.9242Z" fill="#A4AFB7"/>
<path d="M74.6108 43.9491C68.5248 45.6513 65.4818 47.1836 65.4818 48.5462" stroke="#A4AFB7" stroke-width="1.39368" stroke-linecap="round" stroke-linejoin="round"/>
<path d="M100.324 43.9491C106.41 45.6513 109.453 47.1836 109.453 48.5462" stroke="#A4AFB7" stroke-width="1.39368" stroke-linecap="round" stroke-linejoin="round"/>
<path fill-rule="evenodd" clip-rule="evenodd" d="M88.4153 80.8683C93.4712 80.8683 96.4607 78.2201 98.7889 75.9124C96.0295 77.1029 93.9651 78.5724 87.8971 78.5724C81.8292 78.5724 79.4628 77.5246 76.9102 76.3341C80.1759 79.3198 83.3594 80.8683 88.4153 80.8683Z" fill="#A4AFB7" stroke="#A4AFB7" stroke-width="0.998816" stroke-linejoin="round"/>
<path fill-rule="evenodd" clip-rule="evenodd" d="M82.7324 78.487L87.5202 78.7379L87.3633 81.7303C87.3114 82.7218 86.4654 83.4835 85.4738 83.4316L84.2769 83.3689C83.2853 83.3169 82.5236 82.4709 82.5756 81.4794L82.7324 78.487Z" fill="white" stroke="#A4AFB7" stroke-width="1.39834"/>
<path fill-rule="evenodd" clip-rule="evenodd" d="M92.2764 78.487L87.4886 78.7379L87.6454 81.7303C87.6974 82.7218 88.5434 83.4835 89.5349 83.4316L90.7319 83.3689C91.7235 83.3169 92.4852 82.4709 92.4332 81.4794L92.2764 78.487Z" fill="white" stroke="#A4AFB7" stroke-width="1.39834"/>
<path fill-rule="evenodd" clip-rule="evenodd" d="M104.49 48.9553C113.231 49.1514 117.688 50.2353 117.861 52.2069V55.9114C116.796 56.248 116.191 56.866 116.046 57.7654C114.503 67.2923 111.809 70.9159 104.168 70.9159C96.4453 70.9159 89.3464 67.0762 88.4052 56.7985C88.3541 56.2407 87.6853 55.945 86.3987 55.9114L86.1781 55.9201C85.0356 55.9807 84.4403 56.2735 84.3923 56.7985C83.4511 67.0762 76.3521 70.9159 68.629 70.9159C60.9882 70.9159 58.2944 67.2923 56.7519 57.7654C56.616 56.926 56.0797 56.3317 55.1429 55.9825L54.936 55.9114V52.2069C55.1095 50.2353 59.5665 49.1514 68.307 48.9553C74.792 48.8098 79.6905 49.8644 82.9908 51.6253C83.6651 51.985 84.6928 52.1779 86.0738 52.2039L86.3987 52.2069C87.9445 52.2066 89.0805 52.0127 89.8067 51.6253C93.107 49.8644 98.0055 48.8098 104.49 48.9553ZM70.3545 52.0231C65.7653 51.9131 62.6399 52.1404 61.2787 53.9321C60.2823 55.2437 60.442 57.3808 60.6756 59.2339C60.9741 61.6017 61.6977 63.717 62.6399 64.956C63.7005 66.351 65.6726 67.5121 69.1361 67.5121C73.0059 67.5121 76.6456 66.1033 78.5047 63.9069C79.3986 62.8507 82.2135 58.0722 80.9829 55.2196C80.7755 54.7389 80.2478 52.2602 70.3545 52.0231ZM111.671 53.9321C110.309 52.1404 107.184 51.9131 102.595 52.0231C92.7014 52.2602 92.1737 54.7389 91.9663 55.2196C90.7357 58.0722 93.5506 62.8507 94.4446 63.9069C96.3036 66.1033 99.9433 67.5121 103.813 67.5121C107.277 67.5121 109.249 66.351 110.309 64.956C111.252 63.717 111.975 61.6017 112.274 59.2339C112.507 57.3808 112.667 55.2437 111.671 53.9321Z" fill="white" stroke="#A4AFB7" stroke-width="1.11867"/>
</svg>

<svg xmlns="http://www.w3.org/2000/svg" xmlns:xlink="http://www.w3.org/1999/xlink" width="162" height="134" fill="none" xmlns:v="https://vecta.io/nano"><style><![CDATA[.B{fill:#fff}.C{stroke:#a4afb7}.D{stroke-width:1.397}.E{stroke-linecap:round}.F{stroke-linejoin:round}.G{fill-rule:evenodd}.H{stroke-width:1.398}.I{fill:#a4afb7}]]></style><use xlink:href="#B" class="B"/><g class="C"><g class="D"><use xlink:href="#B" class="E F"/><path d="M37.309 9.379a4.19 4.19 0 0 1 4.19 4.19v24.333a4.19 4.19 0 0 1-4.19 4.19l-1.82-.001v4.162a.84.84 0 0 1-.128.445l-.069.095a.84.84 0 0 1-1.181.101l-5.705-4.803-15.537.001a4.19 4.19 0 0 1-4.19-4.19V13.569a4.19 4.19 0 0 1 4.19-4.19h24.439z" fill="#c2cbd2" class="G"/></g><path d="M3.793 3.095l2.793 3.491M11.125 1v4.19M1 10.776l3.491.698" stroke-width="1.257" class="E"/><path d="M66.772 25.043c-3.543-.056-6.936 1.426-9.303 4.062l-2.89 3.218a16.06 16.06 0 0 0-1.914 2.622c-1.947 3.329-2.985 5.837-3.042 7.537-.703 20.964-.859 36.189-.467 45.675.178 4.303.763 8.13 1.76 11.48a16.04 16.04 0 0 0 15.393 11.478h60.045a16.01 16.01 0 0 0 11.356-4.703c2.906-2.907 4.704-6.922 4.704-11.357V45.183c0-3.475-1.117-6.752-3.061-9.431a16.04 16.04 0 0 0-8.015-5.836l-12.419-4.055-52.147-.818z" class="B D"/></g><path d="M108.061 24.253H69.833a21.79 21.79 0 0 0-21.786 21.786v38.381a21.79 21.79 0 0 0 21.786 21.786h38.228a21.79 21.79 0 0 0 21.785-21.786V46.038a21.79 21.79 0 0 0-21.785-21.786z" class="B"/><path d="M112.39 24.951H65.503c-9.255 0-16.758 7.503-16.758 16.758v47.039c0 9.255 7.503 16.759 16.758 16.759h46.887c9.255 0 16.758-7.503 16.758-16.759V41.709c0-9.255-7.503-16.758-16.758-16.758z" class="B C D"/><use xlink:href="#C" class="B"/><use xlink:href="#C" class="C D E F"/><use xlink:href="#D" class="B"/><use xlink:href="#D" class="C D E F"/><path d="M113.424 28.931H64.518A11.51 11.51 0 0 0 53.01 40.438v48.906a11.51 11.51 0 0 0 11.507 11.507h48.906a11.51 11.51 0 0 0 11.507-11.507V40.438a11.51 11.51 0 0 0-11.507-11.507z" fill="#e6e9ec" fill-opacity=".7"/><g class="B C D G"><path d="M49.964 127.586c2.701-.001 4.84 2.226 4.84 4.694H33.399c0-4.627 3.335-8.024 7.963-8.024 3.11 0 4.725 1.082 6.624 3.627.04.054-1.579 1.245-1.539 1.301-.189.424 1.369-1.598 3.517-1.598zm97.414 4.567h-7.362l-1.268-2.22-6.023-10.091-.084-.154c-.896-1.75-.653-3.895 1.098-4.791a3.12 3.12 0 0 1 .434-.184 3.23 3.23 0 0 1 3.922 1.607c.045.088.102.226.173.414l2.074 6.431c-.091-.562-.567-4.087-1.428-10.574a4.38 4.38 0 0 1 3.989-4.741 4.33 4.33 0 0 1 .558-.012l.252.01a4.47 4.47 0 0 1 4.278 4.652c-.003.083-.009.167-.017.25l-1.916 14.544c.024.799.698-1.639 2.023-7.314a2.66 2.66 0 0 1 3.426-1.558 2.72 2.72 0 0 1 .359.166c1.493.83 1.589 2.233.764 3.728l-5.252 9.837z"/><path d="M135.764 126.694c3.012 0 5.467 2.383 5.582 5.367l.003.218h-11.171a5.59 5.59 0 0 1 5.367-5.581l.219-.004z"/></g><path d="M28.372 132.552h122.894m3.91 0h5.586m-141.328 0h5.586m-10.055 0h1.676" class="E C D"/><use xlink:href="#E" class="B"/><g class="E"><use xlink:href="#E" class="C D F"/><g stroke="#fff" stroke-width="3.352"><path d="M63.556 35.075c-2.261 1.378-3.863 3.131-4.807 5.258"/><path d="M18.087 25.943l5.258 4.807 10.197-11.173" class="F"/></g></g><g class="B"><path d="M57.13 46.777c.733 0 1.327-.594 1.327-1.327s-.594-1.327-1.327-1.327-1.327.594-1.327 1.327.594 1.327 1.327 1.327z"/><path d="M101.596 52.937c3.579 0 6.591 3.053 6.591 7.305 0 2.072-.596 3.671-1.621 4.767-1.658-1.006-3.604-1.584-5.685-1.584-1.455 0-2.845.283-4.117.798-.951-1.174-1.539-2.71-1.539-4.508 0-4.253 2.791-6.777 6.37-6.777z" class="C G H"/></g><path d="M100.882 63.924c1.655 0 2.996-1.341 2.996-2.996s-1.341-2.996-2.996-2.996-2.997 1.342-2.997 2.996 1.341 2.996 2.997 2.996z" class="I"/><path d="M71.563 52.937c-3.579 0-6.591 3.053-6.591 7.305 0 2.072.596 3.671 1.62 4.767 1.658-1.006 3.604-1.584 5.685-1.584 1.456 0 2.846.283 4.117.798.95-1.174 1.539-2.71 1.539-4.508 0-4.253-2.791-6.777-6.37-6.777z" class="B C G H"/><path d="M72.277 63.924c-1.655 0-2.996-1.341-2.996-2.996s1.342-2.996 2.996-2.996 2.996 1.342 2.996 2.996-1.341 2.996-2.996 2.996z" class="I"/><g class="C"><path d="M74.611 43.949c-6.086 1.702-9.129 3.234-9.129 4.597m34.842-4.597c6.086 1.702 9.129 3.234 9.129 4.597" stroke-width="1.394" class="E F"/><g class="G"><path d="M88.415 80.868c5.056 0 8.045-2.648 10.374-4.956-2.759 1.191-4.824 2.66-10.892 2.66s-8.434-1.048-10.987-2.238c3.266 2.986 6.449 4.534 11.505 4.534z" stroke-width=".999" class="F I"/><g class="B"><g class="H"><path d="M82.732 78.487l4.788.251-.157 2.992a1.8 1.8 0 0 1-1.889 1.701l-1.197-.063a1.8 1.8 0 0 1-1.701-1.889l.157-2.992z"/><path d="M92.276 78.487l-4.788.251.157 2.992a1.8 1.8 0 0 0 1.889 1.701l1.197-.063a1.8 1.8 0 0 0 1.701-1.889l-.157-2.992z"/></g><path d="M104.49 48.955c8.741.196 13.198 1.28 13.371 3.252v3.705c-1.065.337-1.67.955-1.815 1.854-1.543 9.527-4.237 13.15-11.878 13.15-7.723 0-14.822-3.84-15.763-14.117-.051-.558-.72-.853-2.006-.887l-.221.009c-1.142.061-1.738.353-1.786.878-.941 10.278-8.04 14.117-15.763 14.117-7.641 0-10.335-3.624-11.877-13.15-.136-.839-.672-1.434-1.609-1.783l-.207-.071v-3.705c.173-1.972 4.63-3.055 13.371-3.252 6.485-.145 11.383.909 14.684 2.67.674.36 1.702.553 3.083.579l.325.003c1.546 0 2.682-.194 3.408-.582 3.3-1.761 8.199-2.815 14.683-2.67zm-34.135 3.068c-4.589-.11-7.715.117-9.076 1.909-.996 1.312-.837 3.449-.603 5.302.298 2.368 1.022 4.483 1.964 5.722 1.061 1.395 3.033 2.556 6.496 2.556 3.87 0 7.51-1.409 9.369-3.605.894-1.056 3.709-5.835 2.478-8.687-.207-.481-.735-2.959-10.628-3.197zm41.317 1.909c-1.362-1.792-4.487-2.019-9.076-1.909-9.894.237-10.421 2.716-10.629 3.197-1.231 2.853 1.584 7.631 2.478 8.687 1.859 2.196 5.499 3.605 9.368 3.605 3.464 0 5.436-1.161 6.496-2.556.943-1.239 1.666-3.354 1.965-5.722.233-1.853.393-3.99-.603-5.302z" stroke-width="1.119"/></g></g></g><defs ><path id="B" d="M61.981 75.275c-8.022 2.543-16.67 10.308-21.961 7.668-3.421-1.707-6.616-13.6-11.274-18.15-2.814-2.749-4.152-3.477-5.389-4.136-3.755-1.999-5.346-1.638-5.346-3.387 0-2.268 4.933-2.785 10.147 2.237.368.354-4.812-4.021-6.085-5.023-1.408-1.108-2.739-2.339-2.027-3.653 1.192-2.201 4.011-.431 5.887 1.844 1.657 2.01 3.473 4.415 2.814 3.276-1.404-2.427 2.049-4.538 3.375-4.957s3.693-.56 4.477.916c.435.817.173 1.607-.785 2.175-1.231.729-3.824 1.085-4.3 3.185-.33 1.456.607 3.039 3.011 1.24 1.465-1.096.518-2.989 2.073-4.264s3.361-.711 3.361 1.1c0 6.018-4.688 7.117-4.469 7.488 2.073 3.515 5.699 10.152 6.776 11.245 5.139 5.215 13.53-9.38 16.52-8.028"/><path id="C" d="M101.036 108.812l.55 18.724h-1.291c-1.434 0-2.596 1.162-2.596 2.596s1.162 2.595 2.596 2.595h4.068c1.929 0 3.493-1.564 3.493-3.493 0-.594-1.434-9.606-1.127-20.422"/><path id="D" d="M77.575 108.812l.55 18.724h-1.291c-1.433 0-2.596 1.162-2.596 2.596s1.162 2.595 2.596 2.595h4.068c1.929 0 3.493-1.564 3.493-3.493 0-.594-1.434-9.606-1.127-20.422"/><path id="E" d="M134.296 71.665c5.477 3.199 16.659 8.085 14.071 9.774-6.701 4.374-9.157 2.803-9.157 8.071 0 9.57 6.258 10.819 9.157 8.299s.316-9.849-3.331-8.299 10.14-5.369 10.14-9.32-16.866-16.835-20.88-17.654"/></defs></svg>
